packages/icons/svg/Outline/menu-arrow.svg

<svg width="24" height="24" viewBox="0 0 24 24" fill="none" xmlns="http://www.w3.org/2000/svg">
<g id="Icon/Outline/menu-arrow">
<path id="Mask" fill-rule="evenodd" clip-rule="evenodd" d="M3.94774 5H20.0517C20.5727 5 20.9997 5.427 20.9997 5.948V6.052C20.9997 6.573 20.5727 7 20.0517 7H3.94774C3.42674 7 2.99974 6.573 2.99974 6.052V5.948C2.99974 5.427 3.42674 5 3.94774 5ZM20.0517 11H5.91374L7.20674 9.707C7.59774 9.316 7.59774 8.684 7.20674 8.293C6.81674 7.902 6.18374 7.902 5.79274 8.293L2.79274 11.293C2.40274 11.684 2.40274 12.316 2.79274 12.707L5.79274 15.707C5.98874 15.902 6.24374 16 6.49974 16C6.75574 16 7.01174 15.902 7.20674 15.707C7.59774 15.316 7.59774 14.684 7.20674 14.293L5.91374 13H20.0517C20.5727 13 20.9997 12.573 20.9997 12.052V11.948C20.9997 11.427 20.5727 11 20.0517 11ZM20.0517 17H3.94774C3.42674 17 2.99974 17.427 2.99974 17.948V18.052C2.99974 18.573 3.42674 19 3.94774 19H20.0517C20.5727 19 20.9997 18.573 20.9997 18.052V17.948C20.9997 17.427 20.5727 17 20.0517 17Z" fill="#000000"/>
</g>
</svg>

<svg fill="none" height="24" viewBox="0 0 24 24" width="24" xmlns="http://www.w3.org/2000/svg"><path clip-rule="evenodd" d="m3.9477 5h16.104c.521 0 .948.427.948.948v.104c0 .521-.427.948-.948.948h-16.104c-.52101 0-.948-.427-.948-.948v-.104c0-.521.42699-.948.948-.948zm16.104 6h-14.13796l1.293-1.293c.391-.391.391-1.023 0-1.414-.39-.391-1.023-.391-1.414 0l-3 3c-.39.391-.39 1.023 0 1.414l3 3c.196.195.451.293.707.293s.512-.098.707-.293c.391-.391.391-1.023 0-1.414l-1.293-1.293h14.13796c.521 0 .948-.427.948-.948v-.104c0-.521-.427-.948-.948-.948zm0 6h-16.104c-.52101 0-.948.427-.948.948v.104c0 .521.42699.948.948.948h16.104c.521 0 .948-.427.948-.948v-.104c0-.521-.427-.948-.948-.948z" fill="#6b7280" fill-rule="evenodd"/></svg>
